img/nav/flocon.svg

<svg xmlns="http://www.w3.org/2000/svg" width="400" height="400"><defs><linearGradient id="a" x1="0%" y1="8%" x2="100%" y2="92%"><stop offset="0%" style="stop-color:#12d3bc;stop-opacity:1"/><stop offset="85%" style="stop-color:#0074ff;stop-opacity:1"/></linearGradient></defs><path style="fill:url(#a)" d="m190.836 5.278-7.991 5.269-.016 25.976c-.009 14.288-.149 25.977-.31 25.977s-6.217-3.516-13.456-7.812c-15.533-9.22-12.839-8.769-20.989-3.512l-6.668 4.302v19.31l20.703 12.402 20.704 12.402v16.61c0 9.136-.142 16.611-.316 16.611-.173 0-7.181-3.692-15.572-8.204-8.391-4.511-15.625-8.203-16.076-8.203-.541 0-.891 5.94-1.03 17.494l-.21 17.494-14.453-8.362-14.453-8.361-.205-25.746-.206-25.746-8.199-4.917-8.198-4.916-6.229 4.82-6.23 4.819-.21 16.728-.21 16.728-22.876-12.908c-26.656-15.041-22.533-14.012-33.96-8.475L25 99.506v22.212l22.545 12.41 22.546 12.409-14.147 7.916-14.147 7.916v20.728l8.319 3.852 8.319 3.851 21.587-12.642 21.587-12.643 14.382 8.393 14.382 8.394-14.21 8.863c-7.815 4.875-14.314 9.17-14.441 9.544-.127.373 6.641 4.634 15.041 9.468l15.273 8.789-14.634 8.439-14.635 8.439-2.36-1.44c-1.298-.791-11.057-6.549-21.687-12.794l-19.326-11.356-8.994 4.751-8.994 4.75v20.081l14.939 7.477 14.939 7.478-22.947 12.776-22.946 12.776-.216 11.255-.215 11.255 10.16 4.134 10.161 4.134 23.063-12.902 23.062-12.901V318.573l5.493 4.494c6.281 5.138 5.389 5.212 14.259-1.192l5.95-4.297.04-25.098.04-25.098 15.919-8.301c8.756-4.565 16.139-8.3 16.407-8.3.267 0 .486 8.086.486 17.969 0 9.883.143 17.969.317 17.969.175 0 6.943-4.075 15.039-9.056 8.097-4.98 15.337-9.387 16.089-9.793 1.283-.692 1.367.295 1.368 15.9v16.638l-20.704 12.402-20.703 12.402.021 9.855.02 9.855 6.409 3.906c3.526 2.149 6.769 4.002 7.207 4.118.438.117 6.729-3.311 13.979-7.617 7.251-4.306 13.316-7.829 13.477-7.829.161 0 .3 11.689.307 25.977l.014 25.976 8.031 5.274c9.741 6.396 8.319 6.396 18.178 0l8.127-5.274.006-25.976c.003-14.288.138-25.977.299-25.977.161 0 6.217 3.516 13.456 7.813 15.466 9.179 12.843 8.667 21.012 4.101l6.64-3.711.002-10.245.003-10.246-20.703-12.402-20.703-12.402V267.147l2.539 1.309c1.396.72 8.622 4.772 16.056 9.005 7.435 4.232 13.669 7.695 13.853 7.695.184 0 .429-7.696.544-17.102l.211-17.102 16.211 8.994 16.211 8.995.031 25.1.032 25.1 6.348 4.44 6.348 4.441 6.511-4.441 6.511-4.44v-16.276c0-8.952.287-16.159.638-16.016.35.143 10.557 5.665 22.68 12.271l22.043 12.011 10.327-4.261 10.327-4.26.217-11.026.216-11.027-21.539-12.811c-15.872-9.441-21.273-13.017-20.529-13.594.556-.431 6.547-3.89 13.315-7.688l12.305-6.905v-19.04l-7.368-4.858c-8.865-5.846-5.147-6.76-31.114 7.647l-21.593 11.98-14.299-7.554c-7.864-4.155-14.585-7.828-14.935-8.164-.35-.335 5.89-4.378 13.867-8.983 7.977-4.606 14.504-8.654 14.504-8.995 0-.342-6.32-4.578-14.044-9.414-7.724-4.837-13.879-9.06-13.678-9.385.576-.932 27.993-18.211 28.88-18.201.438.005 10.359 5.689 22.048 12.63 24.527 14.567 21.327 13.657 30.505 8.671l7.227-3.926-.009-9.929-.008-9.929-13.077-7.227c-7.193-3.975-13.538-7.524-14.099-7.886-.697-.449 6.073-4.737 21.276-13.476l22.297-12.817.005-10.547.005-10.547-8.979-4.968-8.979-4.969-6.443 3.347c-3.543 1.841-14.302 7.504-23.909 12.586-9.607 5.081-17.605 9.239-17.774 9.239-.168 0-.306-7.706-.306-17.124V80.595l-6.643-3.62-6.642-3.621-6.238 3.738-6.239 3.739-.205 27.251-.205 27.251-16.016 8.418-16.015 8.418-.21-18.663c-.115-10.264-.36-18.662-.544-18.662-.185 0-6.419 3.463-13.854 7.695-7.434 4.233-14.66 8.285-16.056 9.005l-2.539 1.309.002-16.622.002-16.622 24.998-12.86 24.998-12.86-.014-8.624-.013-8.624-8.962-5.217-8.963-5.217-15.604 8.147c-8.582 4.48-15.793 8.146-16.024 8.146-.231 0-.422-11.689-.424-25.977l-.003-25.976-8.196-5.274c-9.928-6.387-8.452-6.388-18.149.005m31.016 182.614 7.115 12.891-6.749 12.126-6.748 12.126-14.107-.213-14.107-.213-7.768-11.909-7.767-11.909 2.146-3.716c1.181-2.044 4.569-7.846 7.529-12.895l5.382-9.18h27.96l7.114 12.892"/></svg>

<svg id="svg" xmlns="http://www.w3.org/2000/svg" xmlns:xlink="http://www.w3.org/1999/xlink" width="400" height="400" viewBox="0, 0, 400, 400">
<defs>
<linearGradient id="lgrad" x1="0%" y1="8%" x2="100%" y2="92%">
<stop offset="0%" style="stop-color:rgb(18,211,188);stop-opacity:1.00"/>
<stop offset="85%" style="stop-color:rgb(0,116,255);stop-opacity:1.00"/>
</linearGradient>
</defs>
<path style="fill:url(#lgrad);" d="M190.836 5.278 L 182.845 10.547 182.829 36.523 C 182.820 50.811,182.680 62.500,182.519 62.500 C 182.358 62.500,176.302 58.984,169.063 54.688 C 153.530 45.468,156.224 45.919,148.074 51.176 L 141.406 55.478 141.406 65.133 L 141.406 74.788 162.109 87.190 L 182.813 99.592 182.813 116.202 C 182.813 125.338,182.671 132.813,182.497 132.813 C 182.324 132.813,175.316 129.121,166.925 124.609 C 158.534 120.098,151.300 116.406,150.849 116.406 C 150.308 116.406,149.958 122.346,149.819 133.900 L 149.609 151.394 135.156 143.032 L 120.703 134.671 120.498 108.925 L 120.292 83.179 112.093 78.262 L 103.895 73.346 97.666 78.166 L 91.436 82.985 91.226 99.713 L 91.016 116.441 68.140 103.533 C 41.484 88.492,45.607 89.521,34.180 95.058 L 25.000 99.506 25.000 110.612 L 25.000 121.718 47.545 134.128 L 70.091 146.537 55.944 154.453 L 41.797 162.369 41.797 172.733 L 41.797 183.097 50.116 186.949 L 58.435 190.800 80.022 178.158 L 101.609 165.515 115.991 173.908 L 130.373 182.302 116.163 191.165 C 108.348 196.040,101.849 200.335,101.722 200.709 C 101.595 201.082,108.363 205.343,116.763 210.177 L 132.036 218.966 117.402 227.405 L 102.767 235.844 100.407 234.404 C 99.109 233.613,89.350 227.855,78.720 221.610 L 59.394 210.254 50.400 215.005 L 41.406 219.755 41.406 229.796 L 41.406 239.836 56.345 247.313 L 71.284 254.791 48.337 267.567 L 25.391 280.343 25.175 291.598 L 24.960 302.853 35.120 306.987 L 45.281 311.121 68.344 298.219 L 91.406 285.318 91.406 301.945 L 91.406 318.573 96.899 323.067 C 103.180 328.205,102.288 328.279,111.158 321.875 L 117.108 317.578 117.148 292.480 L 117.188 267.382 133.107 259.081 C 141.863 254.516,149.246 250.781,149.514 250.781 C 149.781 250.781,150.000 258.867,150.000 268.750 C 150.000 278.633,150.143 286.719,150.317 286.719 C 150.492 286.719,157.260 282.644,165.356 277.663 C 173.453 272.683,180.693 268.276,181.445 267.870 C 182.728 267.178,182.812 268.165,182.813 283.770 L 182.813 300.408 162.109 312.810 L 141.406 325.212 141.427 335.067 L 141.447 344.922 147.856 348.828 C 151.382 350.977,154.625 352.830,155.063 352.946 C 155.501 353.063,161.792 349.635,169.042 345.329 C 176.293 341.023,182.358 337.500,182.519 337.500 C 182.680 337.500,182.819 349.189,182.826 363.477 L 182.840 389.453 190.871 394.727 C 200.612 401.123,199.190 401.123,209.049 394.727 L 217.176 389.453 217.182 363.477 C 217.185 349.189,217.320 337.500,217.481 337.500 C 217.642 337.500,223.698 341.016,230.937 345.313 C 246.403 354.492,243.780 353.980,251.949 349.414 L 258.589 345.703 258.591 335.458 L 258.594 325.212 237.891 312.810 L 217.188 300.408 217.188 283.777 L 217.188 267.147 219.727 268.456 C 221.123 269.176,228.349 273.228,235.783 277.461 C 243.218 281.693,249.452 285.156,249.636 285.156 C 249.820 285.156,250.065 277.460,250.180 268.054 L 250.391 250.952 266.602 259.946 L 282.813 268.941 282.844 294.041 L 282.876 319.141 289.224 323.581 L 295.572 328.022 302.083 323.581 L 308.594 319.141 308.594 302.865 C 308.594 293.913,308.881 286.706,309.232 286.849 C 309.582 286.992,319.789 292.514,331.912 299.120 L 353.955 311.131 364.282 306.870 L 374.609 302.610 374.826 291.584 L 375.042 280.557 353.503 267.746 C 337.631 258.305,332.230 254.729,332.974 254.152 C 333.530 253.721,339.521 250.262,346.289 246.464 L 358.594 239.559 358.594 230.039 L 358.594 220.519 351.226 215.661 C 342.361 209.815,346.079 208.901,320.112 223.308 L 298.519 235.288 284.220 227.734 C 276.356 223.579,269.635 219.906,269.285 219.570 C 268.935 219.235,275.175 215.192,283.152 210.587 C 291.129 205.981,297.656 201.933,297.656 201.592 C 297.656 201.250,291.336 197.014,283.612 192.178 C 275.888 187.341,269.733 183.118,269.934 182.793 C 270.510 181.861,297.927 164.582,298.814 164.592 C 299.252 164.597,309.173 170.281,320.862 177.222 C 345.389 191.789,342.189 190.879,351.367 185.893 L 358.594 181.967 358.585 172.038 L 358.577 162.109 345.500 154.882 C 338.307 150.907,331.962 147.358,331.401 146.996 C 330.704 146.547,337.474 142.259,352.677 133.520 L 374.974 120.703 374.979 110.156 L 374.984 99.609 366.005 94.641 L 357.026 89.672 350.583 93.019 C 347.040 94.860,336.281 100.523,326.674 105.605 C 317.067 110.686,309.069 114.844,308.900 114.844 C 308.732 114.844,308.594 107.138,308.594 97.720 L 308.594 80.595 301.951 76.975 L 295.309 73.354 289.071 77.092 L 282.832 80.831 282.627 108.082 L 282.422 135.333 266.406 143.751 L 250.391 152.169 250.181 133.506 C 250.066 123.242,249.821 114.844,249.637 114.844 C 249.452 114.844,243.218 118.307,235.783 122.539 C 228.349 126.772,221.123 130.824,219.727 131.544 L 217.188 132.853 217.190 116.231 L 217.192 99.609 242.190 86.749 L 267.188 73.889 267.174 65.265 L 267.161 56.641 258.199 51.424 L 249.236 46.207 233.632 54.354 C 225.050 58.834,217.839 62.500,217.608 62.500 C 217.377 62.500,217.186 50.811,217.184 36.523 L 217.181 10.547 208.985 5.273 C 199.057 -1.114,200.533 -1.115,190.836 5.278 M221.852 187.892 L 228.967 200.783 222.218 212.909 L 215.470 225.035 201.363 224.822 L 187.256 224.609 179.488 212.700 L 171.721 200.791 173.867 197.075 C 175.048 195.031,178.436 189.229,181.396 184.180 L 186.778 175.000 200.758 175.000 L 214.738 175.000 221.852 187.892">
</path>
</svg>
